src/main/resources/icons/PuppetIcons/META-INF/pluginIcon.svg

<svg xmlns="http://www.w3.org/2000/svg" width="40" height="40" viewBox="0 0 40 40"><rect id="frame" width="40" height="40" fill="none"/><path fill="#FFAE1A" fill-rule="evenodd" d="M8 2v10.61h8.204l4.84 4.687v5.406l-4.84 4.687h-8.16V38H19v-8.197l4.644-4.498H32v-10.61h-8.356l-4.688-4.54V2H8zm3.566 7.157h3.826V5.452h-3.826v3.705zm.042 25.39h3.827v-3.706h-3.827v3.706z"/></svg>

<svg xmlns="http://www.w3.org/2000/svg" width="40" height="40" viewBox="0 0 40 40">
  <path fill="#FFAE1A" fill-rule="evenodd" d="M8,2 L8,12.61 L16.204,12.61 L21.044,17.297 L21.044,22.703 L16.204,27.39 L8.044,27.39 L8.044,38 L19,38 L19,29.803 L23.644,25.305 L32,25.305 L32,14.695 L23.644,14.695 L18.956,10.155 L18.956,2 L8,2 Z M11.566,9.157 L15.392,9.157 L15.392,5.452 L11.566,5.452 L11.566,9.157 Z M11.608,34.547 L15.435,34.547 L15.435,30.841 L11.608,30.841 L11.608,34.547 Z"/>
</svg>
